assets/anbernic/win600/home.svg

<svg width="32" height="32" viewBox="0 0 32 32" fill="none" xmlns="http://www.w3.org/2000/svg">
<path d="M30.5 16C30.5 24.0081 24.0081 30.5 16 30.5C7.99187 30.5 1.5 24.0081 1.5 16C1.5 7.99187 7.99187 1.5 16 1.5C24.0081 1.5 30.5 7.99187 30.5 16Z" fill="white"/>
<path fill-rule="evenodd" clip-rule="evenodd" d="M22.8473 15.7986L16.0001 7.94441L9.15283 15.7986H11.256V22.4444H20.7438V15.7986H22.8473ZM13.6279 16.8055H18.3718V20.0278H13.6279V16.8055Z" fill="black"/>
</svg>

<svg width="32" height="32" fill="none" version="1.1" viewBox="0 0 32 32" xmlns="http://www.w3.org/2000/svg">
 <path d="m22.847 15.799-6.8472-7.8542-6.8473 7.8542h2.1032v6.6458h9.4878v-6.6458zm-9.2194 1.0069v3.2223h4.7439v-3.2223zm16.872-0.8055c0 8.0081-6.4919 14.5-14.5 14.5-8.0081 0-14.5-6.4919-14.5-14.5 0-8.0081 6.4919-14.5 14.5-14.5 8.0081 0 14.5 6.4919 14.5 14.5z" fill="#fff"/>
</svg>
